img/svg/offices.svg

<svg width="51" height="48" viewBox="0 0 51 48" fill="none" xmlns="http://www.w3.org/2000/svg">
<path d="M47.5554 47.2391H23.5869V20.4384L21.1807 21.1409V8.0918H47.5554V47.2391ZM25.2464 45.5796H45.896V9.75128H22.8457V18.9227L25.2519 18.2202V45.5796H25.2464Z" fill="white"/>
<path d="M41.6699 9.75129H27.0664V0.18158L41.6699 4.60688V9.75129ZM28.7259 8.0918H40.0104V5.84043L28.7259 2.42189V8.0918Z" fill="white"/>
<path d="M40.0982 47.2391H28.6367V36.9392H40.1038V47.2391H40.0982ZM30.2962 45.5796H38.4443V38.5987H30.2962V45.5796Z" fill="white"/>
<path d="M32.6208 31.1753H28.6436V32.8348H32.6208V31.1753Z" fill="white"/>
<path d="M40.0934 31.1753H36.1162V32.8348H40.0934V31.1753Z" fill="white"/>
<path d="M32.6208 19.5256H28.6436V21.1851H32.6208V19.5256Z" fill="white"/>
<path d="M40.0934 19.5256H36.1162V21.1851H40.0934V19.5256Z" fill="white"/>
<path d="M32.6208 25.3505H28.6436V27.01H32.6208V25.3505Z" fill="white"/>
<path d="M40.0934 25.3505H36.1162V27.01H40.0934V25.3505Z" fill="white"/>
<path d="M32.6208 13.6954H28.6436V15.3549H32.6208V13.6954Z" fill="white"/>
<path d="M40.0934 13.6954H36.1162V15.3549H40.0934V13.6954Z" fill="white"/>
<path d="M25.2356 47.2391H2.52832V24.8748L25.2356 18.2258V47.2391ZM4.18781 45.5796H23.5761V20.4384L4.18781 26.1139V45.5796Z" fill="white"/>
<path d="M20.0458 47.2391H7.71582V36.9392H20.0458V47.2391ZM9.37531 45.5796H18.3863V38.5987H9.37531V45.5796Z" fill="white"/>
<path d="M20.0861 32.4033H7.67871V34.0628H20.0861V32.4033Z" fill="white"/>
<path d="M20.0861 28.1108H7.67871V29.7703H20.0861V28.1108Z" fill="white"/>
<path d="M50.0889 45.5796H0V47.2391H50.0889V45.5796Z" fill="white"/>
</svg>

<svg width="51" height="48" viewBox="0 0 51 48" fill="none" xmlns="http://www.w3.org/2000/svg"><path d="M47.555 47.24H23.587V20.437l-2.406.703V8.09h26.374v39.15zm-22.309-1.66h20.65V9.75h-23.05v9.172l2.406-.703v27.36h-.006z" fill="#fff"/><path d="M41.67 9.751H27.066V.181L41.67 4.608V9.75zm-12.944-1.66H40.01v-2.25L28.726 2.42v5.67zM40.098 47.24H28.637v-10.3h11.467v10.3h-.006zm-9.802-1.66h8.148v-6.981h-8.148v6.98zm2.324-14.405h-3.976v1.66h3.977v-1.66zm7.473 0h-3.977v1.66h3.977v-1.66zM32.62 19.526h-3.976v1.66h3.977v-1.66zm7.473 0h-3.977v1.66h3.977v-1.66zM32.62 25.35h-3.976v1.66h3.977v-1.66zm7.473 0h-3.977v1.66h3.977v-1.66zM32.62 13.695h-3.976v1.66h3.977v-1.66zm7.473 0h-3.977v1.66h3.977v-1.66zM25.236 47.24H2.528V24.874l22.708-6.65V47.24zM4.188 45.58h19.388V20.438L4.188 26.114V45.58z" fill="#fff"/><path d="M20.046 47.24H7.716v-10.3h12.33v10.3zm-10.67-1.66h9.01v-6.981h-9.01v6.98zm10.71-13.177H7.68v1.66h12.407v-1.66zm0-4.293H7.68v1.66h12.407v-1.66z" fill="#fff"/><path d="M50.089 45.58H0v1.66h50.089v-1.66z" fill="#fff"/></svg>
